src/assets/svg/react-logo.svg

<svg width="159" height="142" viewBox="0 0 159 142" fill="none" xmlns="http://www.w3.org/2000/svg">
<path d="M79.9467 84.6396C87.7431 84.6396 94.0634 78.3193 94.0634 70.5229C94.0634 62.7265 87.7431 56.4062 79.9467 56.4062C72.1503 56.4062 65.8301 62.7265 65.8301 70.5229C65.8301 78.3193 72.1503 84.6396 79.9467 84.6396Z" fill="#007ACC"/>
<path d="M79.9468 102.89C62.9793 103.3 46.0544 101.013 29.8045 96.1138C22.2979 93.7343 15.2967 89.9857 9.15462 85.0577C6.81086 83.3742 4.85904 81.2035 3.4331 78.6947C2.00715 76.1859 1.14082 73.3983 0.893555 70.5232C0.893555 61.1892 11.1479 52.0417 28.325 46.0562C45.0094 40.7526 62.4417 38.1822 79.9468 38.4445C97.2183 38.2032 114.417 40.7272 130.891 45.9207C138.12 48.2254 144.884 51.7928 150.869 56.4573C153.173 58.0624 155.095 60.1543 156.5 62.5851C157.905 65.0158 158.759 67.7259 159 70.5232C159 80.2241 147.537 90.055 129.073 96.1647C113.137 100.904 96.5696 103.172 79.9468 102.89ZM79.9468 45.1979C63.1994 44.974 46.5232 47.4176 30.5442 52.4369C14.7335 57.9537 7.64696 65.4976 7.64696 70.5062C7.64696 75.7463 15.2643 83.9848 31.9897 89.7049C47.5354 94.3682 63.7217 96.539 79.9468 96.1364C95.8501 96.4208 111.703 94.269 126.955 89.7557C144.319 84.0018 152.224 75.752 152.224 70.5232C151.939 68.7288 151.285 67.013 150.304 65.4842C149.322 63.9554 148.034 62.6468 146.521 61.641C141.166 57.5028 135.124 54.3412 128.672 52.3014C112.912 47.3536 96.4631 44.9555 79.9468 45.1979Z" fill="#007ACC"/>
<path d="M47.8741 140.931C45.2399 140.991 42.6368 140.352 40.3302 139.079C32.2441 134.415 29.4434 120.964 32.837 103.093C36.5788 85.9895 43.062 69.604 52.0357 54.5709C60.4533 39.4893 71.2297 25.8515 83.9562 14.1747C89.5643 9.06281 96.0337 4.98501 103.065 2.13038C105.608 0.938593 108.382 0.320801 111.19 0.320801C113.999 0.320801 116.773 0.938593 119.316 2.13038C127.724 6.97522 130.507 21.8146 126.583 40.8608C122.726 57.036 116.411 72.5241 107.859 86.7851C99.7372 101.689 89.3001 115.208 76.9375 126.837C71.1258 132.149 64.3812 136.34 57.0443 139.197C54.107 140.288 51.0066 140.874 47.8741 140.931ZM57.8856 57.925C49.3258 72.3202 43.1121 87.9862 39.4775 104.335C36.3549 120.795 39.3533 130.694 43.7125 133.212C48.2298 135.826 59.1956 133.347 72.5105 121.715C84.3121 110.574 94.274 97.6335 102.026 83.3745C110.219 69.7408 116.276 54.9331 119.988 39.4661C123.68 21.538 120.49 10.5608 115.962 7.95209C114.264 7.30174 112.45 7.01062 110.635 7.09712C108.819 7.18362 107.041 7.64587 105.414 8.45464C99.1553 11.0371 93.4016 14.7034 88.4171 19.2849C76.258 30.4698 65.9642 43.5257 57.9251 57.9589L57.8856 57.925Z" fill="#007ACC"/>
<path d="M112.003 141.004C104.352 141.004 94.6336 136.374 84.5148 127.673C71.5653 115.89 60.6067 102.09 52.0634 86.8078C43.2023 71.9817 36.7704 55.8333 33.0116 38.9749C31.3815 31.558 31.0794 23.9107 32.1194 16.3883C32.3599 13.5977 33.2096 10.8939 34.6087 8.46749C36.0078 6.04107 37.9221 3.95112 40.2168 2.34503C48.6133 -2.51675 62.8599 2.48055 77.4 15.3888C89.4872 26.8074 99.7517 40.0122 107.836 54.5428C116.691 69.0228 123.191 84.8175 127.091 101.337C128.791 109.026 129.053 116.963 127.864 124.748C127.581 127.618 126.681 130.394 125.225 132.884C123.769 135.375 121.791 137.521 119.428 139.175C117.159 140.433 114.596 141.064 112.003 141.004ZM57.9077 83.4085C66.1035 98.0132 76.5716 111.22 88.9192 122.534C101.619 133.46 111.692 135.809 116.023 133.263C120.54 130.637 123.872 119.92 120.439 102.579C116.677 86.8074 110.444 71.7307 101.969 57.9082C94.2543 44.0011 84.4569 31.3568 72.9166 20.4143C59.2291 8.26273 48.1277 5.54669 43.6048 8.16674C42.195 9.31234 41.0382 10.7378 40.2072 12.3531C39.3762 13.9684 38.8892 15.7384 38.7769 17.5515C37.8791 24.2602 38.1715 31.0747 39.6408 37.6818C43.2564 53.8038 49.425 69.2445 57.9134 83.4198L57.9077 83.4085Z" fill="#007ACC"/>
</svg>

<svg width="159" height="142" fill="none" xmlns="http://www.w3.org/2000/svg"><path d="M79.947 84.64c7.796 0 14.116-6.32 14.116-14.117 0-7.796-6.32-14.117-14.116-14.117-7.797 0-14.117 6.32-14.117 14.117 0 7.796 6.32 14.117 14.117 14.117z" fill="#007ACC"/><path d="M79.947 102.89a160.294 160.294 0 0 1-50.142-6.776 63.806 63.806 0 0 1-20.65-11.056A20.006 20.006 0 0 1 .894 70.523c0-9.334 10.254-18.481 27.431-24.467a162.372 162.372 0 0 1 51.622-7.611 161.914 161.914 0 0 1 50.944 7.476 64.245 64.245 0 0 1 19.978 10.536A19.142 19.142 0 0 1 159 70.523c0 9.701-11.463 19.532-29.927 25.642a162.657 162.657 0 0 1-49.126 6.725zm0-57.692a157.81 157.81 0 0 0-49.403 7.239c-15.81 5.517-22.897 13.06-22.897 18.07 0 5.24 7.617 13.478 24.343 19.198a153.644 153.644 0 0 0 47.957 6.431 155.845 155.845 0 0 0 47.008-6.38c17.364-5.754 25.269-14.004 25.269-19.233a13.15 13.15 0 0 0-5.703-8.882 57.573 57.573 0 0 0-17.849-9.34 155.073 155.073 0 0 0-48.725-7.103z" fill="#007ACC"/><path d="M47.874 140.931a14.91 14.91 0 0 1-7.544-1.852c-8.086-4.664-10.887-18.115-7.493-35.986a162.37 162.37 0 0 1 19.199-48.522 161.924 161.924 0 0 1 31.92-40.396A64.234 64.234 0 0 1 103.065 2.13a19.147 19.147 0 0 1 16.251 0c8.408 4.845 11.191 19.685 7.267 38.73a162.655 162.655 0 0 1-18.724 45.925 160.283 160.283 0 0 1-30.921 40.052 63.803 63.803 0 0 1-19.894 12.36 27.788 27.788 0 0 1-9.17 1.734zm10.012-83.006a157.814 157.814 0 0 0-18.409 46.41c-3.122 16.46-.124 26.359 4.236 28.877 4.517 2.614 15.483.135 28.797-11.497a153.65 153.65 0 0 0 29.516-38.34 155.858 155.858 0 0 0 17.962-43.909c3.692-17.928.502-28.905-4.026-31.514a13.145 13.145 0 0 0-10.548.503 57.56 57.56 0 0 0-16.997 10.83 155.082 155.082 0 0 0-30.492 38.674l-.04-.034z" fill="#007ACC"/><path d="M112.003 141.004c-7.651 0-17.37-4.63-27.488-13.331a162.375 162.375 0 0 1-32.452-40.865 161.924 161.924 0 0 1-19.051-47.833 64.238 64.238 0 0 1-.893-22.587 19.148 19.148 0 0 1 8.098-14.043c8.396-4.862 22.643.136 37.183 13.044a162.637 162.637 0 0 1 30.436 39.154 160.287 160.287 0 0 1 19.255 46.794 63.813 63.813 0 0 1 .773 23.411 20.009 20.009 0 0 1-8.436 14.427 14.616 14.616 0 0 1-7.425 1.829zM57.908 83.409a157.822 157.822 0 0 0 31.011 39.125c12.7 10.926 22.773 13.275 27.104 10.729 4.517-2.626 7.849-13.343 4.416-30.684a153.673 153.673 0 0 0-18.47-44.67 155.86 155.86 0 0 0-29.052-37.495C59.229 8.263 48.127 5.547 43.605 8.167a13.14 13.14 0 0 0-4.828 9.385 57.56 57.56 0 0 0 .864 20.13A155.086 155.086 0 0 0 57.913 83.42l-.005-.011z" fill="#007ACC"/></svg>
